icons/sliders-h-17.svg

<svg width="16" height="17" viewBox="0 0 16 17" fill="none" xmlns="http://www.w3.org/2000/svg">
<path d="M13 4.16638C13 4.44252 12.7761 4.66638 12.5 4.66638L9 4.66638C8.72386 4.66638 8.5 4.44252 8.5 4.16638C8.5 3.89024 8.72386 3.66638 9 3.66638L12.5 3.66638C12.7761 3.66638 13 3.89024 13 4.16638Z" fill="#272431"/>
<path d="M6.5 4.66638L6.5 5.66638C6.5 5.94252 6.72386 6.16638 7 6.16638C7.27614 6.16638 7.5 5.94252 7.5 5.66638L7.5 2.66638C7.5 2.39024 7.27614 2.16638 7 2.16638C6.72386 2.16638 6.5 2.39024 6.5 2.66638L6.5 3.66638L3.5 3.66638C3.22386 3.66638 3 3.89024 3 4.16638C3 4.44252 3.22386 4.66638 3.5 4.66638L6.5 4.66638Z" fill="#272431"/>
<path d="M8 8.66638C8.27614 8.66638 8.5 8.44252 8.5 8.16638C8.5 7.89024 8.27614 7.66638 8 7.66638L3.5 7.66638C3.22386 7.66638 3 7.89024 3 8.16638C3 8.44252 3.22386 8.66638 3.5 8.66638L8 8.66638Z" fill="#272431"/>
<path d="M13 8.16638C13 8.44252 12.7761 8.66638 12.5 8.66638L10.5 8.66638L10.5 9.66638C10.5 9.94252 10.2761 10.1664 10 10.1664C9.72386 10.1664 9.5 9.94252 9.5 9.66638L9.5 6.66638C9.5 6.39024 9.72386 6.16638 10 6.16638C10.2761 6.16638 10.5 6.39024 10.5 6.66638L10.5 7.66638L12.5 7.66638C12.7761 7.66638 13 7.89024 13 8.16638Z" fill="#272431"/>
<path d="M6.5 13.6664C6.5 13.9425 6.27614 14.1664 6 14.1664C5.72386 14.1664 5.5 13.9425 5.5 13.6664L5.5 12.6664L3.5 12.6664C3.22386 12.6664 3 12.4425 3 12.1664C3 11.8902 3.22386 11.6664 3.5 11.6664L5.5 11.6664L5.5 10.6664C5.5 10.3902 5.72386 10.1664 6 10.1664C6.27614 10.1664 6.5 10.3902 6.5 10.6664L6.5 13.6664Z" fill="#272431"/>
<path d="M13 12.1664C13 12.4425 12.7761 12.6664 12.5 12.6664L8 12.6664C7.72386 12.6664 7.5 12.4425 7.5 12.1664C7.5 11.8902 7.72386 11.6664 8 11.6664L12.5 11.6664C12.7761 11.6664 13 11.8902 13 12.1664Z" fill="#272431"/>
</svg>

<svg xmlns="http://www.w3.org/2000/svg" width="16" height="17" viewBox="0 0 16 17"><path d="M13 4.166a.5.5 0 01-.5.5H9a.5.5 0 010-1h3.5a.5.5 0 01.5.5zm-6.5.5v1a.5.5 0 001 0v-3a.5.5 0 00-1 0v1h-3a.5.5 0 000 1h3zm1.5 4a.5.5 0 000-1H3.5a.5.5 0 000 1H8zm5-.5a.5.5 0 01-.5.5h-2v1a.5.5 0 01-1 0v-3a.5.5 0 011 0v1h2a.5.5 0 01.5.5zm-6.5 5.5a.5.5 0 01-1 0v-1h-2a.5.5 0 010-1h2v-1a.5.5 0 111 0v3zm6.5-1.5a.5.5 0 01-.5.5H8a.5.5 0 010-1h4.5a.5.5 0 01.5.5z"/></svg>
